svg/fluentui-system-icons/ic_fluent_text_align_right_rotate_90_24_regular.svg

<svg width="24" height="24" viewBox="0 0 24 24" fill="none" xmlns="http://www.w3.org/2000/svg">
<path d="M18.25 5C18.6642 5 19 5.33579 19 5.75V21.25C19 21.6642 18.6642 22 18.25 22C17.8358 22 17.5 21.6642 17.5 21.25V5.75C17.5 5.33579 17.8358 5 18.25 5ZM5.25 10C5.66421 10 6 10.3358 6 10.75V21.25C6 21.6642 5.66421 22 5.25 22C4.83579 22 4.5 21.6642 4.5 21.25V10.75C4.5 10.3358 4.83579 10 5.25 10ZM12.5 2.75C12.5 2.33579 12.1642 2 11.75 2C11.3358 2 11 2.33579 11 2.75V21.25C11 21.6642 11.3358 22 11.75 22C12.1642 22 12.5 21.6642 12.5 21.25V2.75Z" fill="#212121"/>
</svg>

<svg xmlns="http://www.w3.org/2000/svg" width="24" height="24"><path d="M18.25 5a.75.75 0 0 1 .75.75v15.5a.75.75 0 0 1-1.5 0V5.75a.75.75 0 0 1 .75-.75Zm-13 5a.75.75 0 0 1 .75.75v10.5a.75.75 0 0 1-1.5 0v-10.5a.75.75 0 0 1 .75-.75Zm7.25-7.25a.75.75 0 0 0-1.5 0v18.5a.75.75 0 0 0 1.5 0V2.75Z"/></svg>
